packages/dnb-eufemia/assets/icons/language.svg

<svg width="16" height="16" viewBox="0 0 16 16" fill="none" xmlns="http://www.w3.org/2000/svg">
<path d="M1.1599 6.09445H4.15162C4.53286 6.09449 4.88835 6.37226 4.98086 6.74239L5.40831 8.4535C5.43984 8.57963 5.44222 8.7113 5.41529 8.83849C5.3331 9.2266 4.97775 9.51663 4.57907 9.51667H3.96411L3.63498 11.1643L3.38323 12.5811M1.1599 6.09445C0.920064 7.15753 0.950257 8.27138 1.24894 9.32167C1.61056 10.5933 2.36304 11.7421 3.38323 12.5811M1.1599 6.09445C1.58909 4.19203 2.87944 2.54852 4.62543 1.68122C5.53086 1.23146 6.52829 0.998268 7.53912 1.00001C9.27193 0.997509 10.935 1.70759 12.1458 2.90556M3.38323 12.5811C3.91952 13.0221 4.52424 13.376 5.17544 13.6277C7.07107 14.3606 9.24907 14.1555 10.9749 13.0817L15 15L13.0832 10.9711C13.3235 10.5847 13.5217 10.1759 13.6756 9.75172M13.6756 9.75172C13.9156 9.09076 14.0482 8.39249 14.0655 7.68352C14.094 6.51957 13.8106 5.3692 13.245 4.3518C12.9466 3.81519 12.5745 3.32979 12.1458 2.90556M13.6756 9.75172H11.3333C10.9206 9.75185 10.5578 9.44443 10.4898 9.03704L10.039 6.32778H9.13911C8.59199 6.32772 8.17909 5.78782 8.30987 5.26461L8.73731 3.5535C8.82983 3.18338 9.18532 2.90561 9.56656 2.90556H12.1458" stroke="black" stroke-width="1.5" stroke-linecap="round" stroke-linejoin="round"/>
</svg>

<svg width="16" height="16" viewBox="0 0 16 16" fill="none" xmlns="http://www.w3.org/2000/svg"><path d="M1.16 6.094h2.992c.38 0 .736.278.829.648l.427 1.712a.856.856 0 0 1 .007.384.866.866 0 0 1-.836.679h-.615l-.329 1.647-.252 1.417M1.16 6.094a6.55 6.55 0 0 0 .089 3.228 6.569 6.569 0 0 0 2.134 3.26M1.16 6.093A6.58 6.58 0 0 1 4.625 1.68 6.524 6.524 0 0 1 7.54 1a6.575 6.575 0 0 1 4.607 1.906M3.383 12.58a6.526 6.526 0 0 0 1.792 1.047 6.573 6.573 0 0 0 5.8-.546L15 15l-1.917-4.029a6.52 6.52 0 0 0 .593-1.22m0 0a6.526 6.526 0 0 0-.431-5.4 6.437 6.437 0 0 0-1.1-1.445m1.53 6.846h-2.342a.863.863 0 0 1-.843-.715l-.451-2.71h-.9a.868.868 0 0 1-.83-1.062l.428-1.711a.875.875 0 0 1 .83-.648h2.579" stroke="#000" stroke-width="1.5" stroke-linecap="round" stroke-linejoin="round"/></svg>
